lib/healthicons/icons/solid/typography/2.svg

<svg fill="none" height="48" viewBox="0 0 48 48" width="48" xmlns="http://www.w3.org/2000/svg"><path clip-rule="evenodd" d="m26 14c2.2091 0 4 1.7909 4 4 0 1.1845-.5123 2.2467-1.3338 2.9819-.019.017-.0376.0344-.0559.0521l-14 13.5277c-.5863.5665-.77 1.432-.4646 2.1878.3055.7558 1.0391 1.2505 1.8543 1.2505h16c1.1046 0 2-.8954 2-2s-.8954-2-2-2h-11.052l10.4162-10.0649c1.6159-1.4611 2.6358-3.5803 2.6358-5.9351 0-4.4183-3.5817-8-8-8h-4c-3.4864 0-6.447 2.229-7.5443 5.3335-.3681 1.0414.1778 2.1841 1.2192 2.5522 1.0415.3681 2.1841-.1778 2.5522-1.2192.5501-1.5563 2.0344-2.6665 3.7729-2.6665z" fill="#333" fill-rule="evenodd"/></svg>

<svg width="48" height="48" viewBox="0 0 48 48" fill="none" xmlns="http://www.w3.org/2000/svg">
<path fill-rule="evenodd" clip-rule="evenodd" d="M26 14C28.2091 14 30 15.7909 30 18C30 19.1845 29.4877 20.2467 28.6662 20.9819C28.6472 20.9989 28.6286 21.0163 28.6103 21.034L14.6103 34.5617C14.024 35.1282 13.8403 35.9937 14.1457 36.7495C14.4512 37.5053 15.1848 38 16 38H32C33.1046 38 34 37.1046 34 36C34 34.8954 33.1046 34 32 34H20.948L31.3642 23.9351C32.9801 22.474 34 20.3548 34 18C34 13.5817 30.4183 10 26 10H22C18.5136 10 15.553 12.229 14.4557 15.3335C14.0876 16.3749 14.6335 17.5176 15.6749 17.8857C16.7164 18.2538 17.859 17.7079 18.2271 16.6665C18.7772 15.1102 20.2615 14 22 14H26Z" fill="#333333"/>
</svg>
